packages/vapor/resources/icons/svg/logo-symbol-original.svg

<svg viewBox="0 0 104 104" fill="none" xmlns="http://www.w3.org/2000/svg">
    <path d="M88.91 15.003C79.9591 6.10373 68.4938 1.10413 56.7269.00422152 55.3189-.0957704 54.5143 1.60409 55.52 2.60401L74.327 21.3025c.1006.1 0 .3-.2011.2-5.4309-3.8997-11.5658-6.0995-17.9019-6.6995-1.0057-.1-1.5085 1.0999-.8045 1.7999l12.8732 12.7989c.1006.1 0 .3-.2012.2-3.52-2.3998-7.5429-3.7997-11.6663-4.1996-.704-.1-1.1063.7999-.6034 1.1999l21.8241 21.6982c.5029.5 1.3074.1 1.2069-.5999-.4023-4.0997-1.8103-8.0994-4.2241-11.5991-.1005-.1.1006-.3.2012-.2l12.3703 12.299c.704.7 1.9109.1 1.8103-.7999-.5028-6.1995-2.7154-12.399-6.6377-17.6986-.1006-.1.1006-.3.2011-.2l18.8071 18.6985c1.006.9999 2.715.2 2.615-1.2999-1.107-11.599-6.1351-22.9981-15.086-31.8974z" fill="#00ADFF"/>
    <path d="M15.0901 15.003C24.041 6.10373 35.5062 1.10413 47.2731.00422152 48.6811-.0957704 49.4857 1.60409 48.48 2.60401L29.673 21.3025c-.1006.1 0 .3.2011.2 5.4309-3.8997 11.5658-6.0995 17.9019-6.6995 1.0057-.1 1.5085 1.0999.8045 1.7999L35.7073 29.4018c-.1005.1 0 .3.2012.2 3.52-2.3998 7.5429-3.7997 11.6663-4.1996.704-.1 1.1063.7999.6035 1.1999L26.3541 48.4003c-.5028.5-1.3074.1-1.2068-.6.4022-4.0996 1.8103-8.0993 4.224-11.599.1006-.1-.1006-.3-.2012-.2l-12.3703 12.299c-.704.6999-1.9109.1-1.8103-.7999.6034-6.2995 2.816-12.499 6.7383-17.7986.1006-.1-.1006-.3-.2011-.2L2.61912 48.2003c-1.00572.9999-2.715446.2-2.61487399-1.2999C1.11054 35.3014 6.13914 23.9023 15.0901 15.003z" fill="#F05245"/>
    <path d="M15.0901 88.997c8.9509 8.8993 20.4161 13.899 32.183 14.999 1.408.1 2.2126-1.6 1.2069-2.6L29.673 82.6975c-.1006-.1 0-.3.2011-.2 5.4309 3.8997 11.5658 6.0995 17.9019 6.6995 1.0057.1 1.5085-1.0999.8045-1.7999L35.7073 74.5982c-.1005-.1 0-.3.2012-.2 3.52 2.3998 7.5429 3.7997 11.6663 4.1996.704.1 1.1063-.7999.6035-1.1999L26.3541 55.5997c-.5028-.5-1.3074-.1-1.2068.6.4022 4.0996 1.8103 8.0993 4.224 11.599.1006.1-.1006.3-.2012.2l-12.3703-12.299c-.704-.6999-1.9109-.1-1.8103.7999.6034 6.2995 2.816 12.499 6.7383 17.7986.1006.1-.1006.3-.2011.2L2.61912 55.7997c-1.00572-.9999-2.715446-.2-2.61487399 1.2999C1.11054 68.6986 6.13914 80.0977 15.0901 88.997z" fill="#1CEBCF"/>
    <path d="M88.91 88.997c-8.9509 8.8993-20.4162 13.899-32.1831 14.999-1.408.1-2.2126-1.6-1.2069-2.6l18.807-18.6985c.1006-.1 0-.3-.2011-.2-5.4309 3.8997-11.5658 6.0995-17.9019 6.6995-1.0057.0999-1.5085-1.1-.8045-1.7999l12.8732-12.799c.1006-.1 0-.2999-.2012-.1999-3.52 2.3998-7.5429 3.7996-11.6663 4.1996-.704.1-1.1063-.7999-.6034-1.1999l21.8241-21.6982c.5029-.5 1.3074-.1 1.2069.5999-.4023 4.0997-1.8103 8.0994-4.2241 11.5991-.1005.1.1006.3.2012.2l12.3703-12.299c.704-.7 1.9109-.1 1.8103.7999-.5028 6.1995-2.7154 12.399-6.6377 17.7986-.1006.0999.1006.2999.2011.1999l18.8071-18.6984c1.006-1 2.715-.2 2.615 1.2999-1.107 11.499-6.1351 22.8981-15.086 31.7974z" fill="#FFE300"/>
</svg>

<svg viewBox="0 0 104 104" fill="none" xmlns="http://www.w3.org/2000/svg">
    <path d="M88.91 15.003C79.9591 6.10373 68.4938 1.10413 56.7269 0.00422152C55.3189 -0.0957704 54.5143 1.60409 55.52 2.60401L74.327 21.3025C74.4276 21.4025 74.327 21.6025 74.1259 21.5025C68.695 17.6028 62.5601 15.403 56.224 14.803C55.2183 14.703 54.7155 15.9029 55.4195 16.6029L68.2927 29.4018C68.3933 29.5018 68.2927 29.7018 68.0915 29.6018C64.5715 27.202 60.5486 25.8021 56.4252 25.4022C55.7212 25.3022 55.3189 26.2021 55.8218 26.6021L77.6459 48.3003C78.1488 48.8003 78.9533 48.4003 78.8528 47.7004C78.4505 43.6007 77.0425 39.601 74.6287 36.1013C74.5282 36.0013 74.7293 35.8013 74.8299 35.9013L87.2002 48.2003C87.9042 48.9003 89.1111 48.3003 89.0105 47.4004C88.5077 41.2009 86.2951 35.0014 82.3728 29.7018C82.2722 29.6018 82.4734 29.4018 82.5739 29.5018L101.381 48.2003C102.387 49.2002 104.096 48.4003 103.996 46.9004C102.889 35.3014 97.8609 23.9023 88.91 15.003Z" fill="#00ADFF"/>
    <path d="M15.0901 15.003C24.041 6.10373 35.5062 1.10413 47.2731 0.00422152C48.6811 -0.0957704 49.4857 1.60409 48.48 2.60401L29.673 21.3025C29.5724 21.4025 29.673 21.6025 29.8741 21.5025C35.305 17.6028 41.4399 15.403 47.776 14.803C48.7817 14.703 49.2845 15.9029 48.5805 16.6029L35.7073 29.4018C35.6068 29.5018 35.7073 29.7018 35.9085 29.6018C39.4285 27.202 43.4514 25.8021 47.5748 25.4022C48.2788 25.3022 48.6811 26.2021 48.1783 26.6021L26.3541 48.4003C25.8513 48.9003 25.0467 48.5003 25.1473 47.8003C25.5495 43.7007 26.9576 39.701 29.3713 36.2013C29.4719 36.1013 29.2707 35.9013 29.1701 36.0013L16.7998 48.3003C16.0958 49.0002 14.8889 48.4003 14.9895 47.5004C15.5929 41.2009 17.8055 35.0014 21.7278 29.7018C21.8284 29.6018 21.6272 29.4018 21.5267 29.5018L2.61912 48.2003C1.6134 49.2002 -0.096326 48.4003 0.00424601 46.9004C1.11054 35.3014 6.13914 23.9023 15.0901 15.003Z" fill="#F05245"/>
    <path d="M15.0901 88.997C24.041 97.8963 35.5062 102.896 47.2731 103.996C48.6811 104.096 49.4857 102.396 48.48 101.396L29.673 82.6975C29.5724 82.5975 29.673 82.3975 29.8741 82.4975C35.305 86.3972 41.4399 88.597 47.776 89.197C48.7817 89.297 49.2845 88.0971 48.5805 87.3971L35.7073 74.5982C35.6068 74.4982 35.7073 74.2982 35.9085 74.3982C39.4285 76.798 43.4514 78.1979 47.5748 78.5978C48.2788 78.6978 48.6811 77.7979 48.1783 77.3979L26.3541 55.5997C25.8513 55.0997 25.0467 55.4997 25.1473 56.1997C25.5495 60.2993 26.9576 64.299 29.3713 67.7987C29.4719 67.8987 29.2707 68.0987 29.1701 67.9987L16.7998 55.6997C16.0958 54.9998 14.8889 55.5997 14.9895 56.4996C15.5929 62.7991 17.8055 68.9986 21.7278 74.2982C21.8284 74.3982 21.6272 74.5982 21.5267 74.4982L2.61912 55.7997C1.6134 54.7998 -0.096326 55.5997 0.00424601 57.0996C1.11054 68.6986 6.13914 80.0977 15.0901 88.997Z" fill="#1CEBCF"/>
    <path d="M88.91 88.997C79.9591 97.8963 68.4938 102.896 56.7269 103.996C55.3189 104.096 54.5143 102.396 55.52 101.396L74.327 82.6975C74.4276 82.5975 74.327 82.3975 74.1259 82.4975C68.695 86.3972 62.5601 88.597 56.224 89.197C55.2183 89.2969 54.7155 88.097 55.4195 87.3971L68.2927 74.5981C68.3933 74.4981 68.2927 74.2982 68.0915 74.3982C64.5715 76.798 60.5486 78.1978 56.4252 78.5978C55.7212 78.6978 55.3189 77.7979 55.8218 77.3979L77.6459 55.6997C78.1488 55.1997 78.9533 55.5997 78.8528 56.2996C78.4505 60.3993 77.0425 64.399 74.6287 67.8987C74.5282 67.9987 74.7293 68.1987 74.8299 68.0987L87.2002 55.7997C87.9042 55.0997 89.1111 55.6997 89.0105 56.5996C88.5077 62.7991 86.2951 68.9986 82.3728 74.3982C82.2722 74.4981 82.4734 74.6981 82.5739 74.5981L101.381 55.8997C102.387 54.8997 104.096 55.6997 103.996 57.1996C102.889 68.6986 97.8609 80.0977 88.91 88.997Z" fill="#FFE300"/>
</svg>
